!!!OTL: 627. Fruehlingsbotschaft.
!!!ARE: Europa, Mitteleuropa, Deutschland
!!!SCT: B0627
!!!TXL: @@DE
!!!YEM: Copyright 1995, estate of Helmut Schaffrath.
**kern	**text
*ICvox	*
*Ivox	*
*clefG2	*
*M3/4	*
*k[f#]	*
*G:	*
=1	=1
!LO:TX:a:t=Heiter.	!
{2dd'	Kuk-
4b'	-kuk,
=2	=2
2dd'	Kuk-
4b'}	-kuk
=3	=3
{4a	ruft
4g	aus
4a	dem
=4	=4
2g	Wald.
4r}	.
=5	=5
{4a	Laſ-
4a	-ſet
4b	uns
=6	=6
2cc	ſin-
4a}	-gen,
=7	=7
{4b	tan-
4b	-ʒen
4cc	und
=8	=8
2cc	ſprin-
4b}	-gen.
=9||	=9||
{2dd	Früh-
4b	-ling,
=10	=10
2dd	Früh-
4b}	-ling
=11	=11
{4a	wird
4g	es
4a	nun
=12	=12
2g	bald.
4r}	.
==	==
!!!AGN: Kinder -, Jahreszeiten - Lied, Fruehling
!!!GTL: Kinderlieder
!!!ONB: ESAC (Essen Associative Code) Database: BOEHME
!!!AMT: simple triple
!!!AIN: vox
!!!EED: Helmut Schaffrath
!!!EEV: 1.0
!!Niederoesterr. Volksweise: "Stieglitz, Stieglitz, 's Zeiserl is krank". 1817.
!!@@COMMENT:"Gedicht von Hoffmann v. Fallersleben 1835. Ueberaus beliebtes Kinderlied."
!!@@END:
!!!Text: H. von Fallersleben
!!!URL-scan: https://archive.org/details/BoehmeVtLieder1895/page/n493/mode/2up
!!!ENC: Anna Maria Matuszewska
!!!EEV: 2024/15/07
*-	*-
